X: 4
T: Ay Deus se sabora meu amigo
F:https://en.wikipedia.org/wiki/Martin_Codax
F:https://es.wikisource.org/wiki/Archivo:Martim_Codax_Cantigas_de_Amigo.jpg
Z:Ali Corbin <ali.corbin:gmail.com>
N: 
M: 3/4
L: 1/4
Q: 1/4=100
K: A Phrygian
V:1
%Staff 1
%%MIDI program 74
%
  F | G   A2| A2 (A/G/)|A (B/A/A/G/)|A (G/F/G/A/)|(AG) 
w:Ay Deus se sab' o-*  ra  meu***    a- mi-***     go.*
 (F/E/)| F G2|(BA) (A/G/)|A  (B/A/A/G/)|A (G/F/G/A/)|A2 z|
w:com'* eu se-nnei-*ra*   es- tou***    en vi-***    go.
M:4/4
  (B/A/A/G/) (3(BAG)|(F/G/) E F2|(GA2) z||
w: E***         vou**  na-* mo-ra- da.*
%
W:Ay Deus se sab'ora meu amigo		% Ay God, if knows my friend
W:com' eu senneira estou en Vigo. 	% how lonely I.am in Vigo.
W:E vou namorada. 			% And I.go enamored
W:
W:Ay Deus se sab'ora meu amado. 	% Ay God, if knows my beloved 
W:com' eu en Vigo senneira manno. 	% how I in Vigo lonely I.flow.
W:E vou namorada. 			% And I.go enamored
W:
W:Com' eu senneira estou en Vigo 	% How lonely I.am in Vigo 		
W:e nullas gardas non ei comigo 	% and no protection I.have with.me
W:E vou namorada. 			% And I.go enamored
W:
W:Com' eu senneira en Vigo manno 	% How lonely in Vigo I.flow 
W:e nullas gardas migo non trago 	% and no protection with.me I.bring
W:E vou namorada. 			% And I.go enamored
W:
W:E nullas gardas non ei comigo. 	% And no protection I.have with.me 
W:ergas meus olhos que choran migo. 	% except my eyes weep with.me.
W:E vou namorada. 			% And I.go enamored
W:
W:E nullas gardas migo non trago 	% And no protection with.me I.bring
W:ergas meus ollos que choran ambos 	% except my eyes they.weep both.
W:E vou namorada. 			% And I.go enamored


